components/Common/Svg/svgs/business.svg

<svg width="40" height="40" viewBox="0 0 40 40" fill="none" xmlns="http://www.w3.org/2000/svg">
<path d="M30.125 24.7266C30.125 24.3124 29.7892 23.9766 29.375 23.9766C28.9608 23.9766 28.625 24.3124 28.625 24.7266V25.5H28.4375C27.8242 25.5 27.236 25.7436 26.8023 26.1773C26.3686 26.611 26.125 27.1992 26.125 27.8125C26.125 28.4258 26.3686 29.014 26.8023 29.4477C27.236 29.8814 27.8242 30.125 28.4375 30.125H30.3125C30.528 30.125 30.7347 30.2106 30.887 30.363C31.0394 30.5154 31.125 30.722 31.125 30.9375C31.125 31.153 31.0394 31.3597 30.887 31.512C30.7347 31.6644 30.528 31.75 30.3125 31.75H27.5C27.0858 31.75 26.75 32.0858 26.75 32.5C26.75 32.9142 27.0858 33.25 27.5 33.25H28.625V34.0234C28.625 34.4377 28.9608 34.7734 29.375 34.7734C29.7892 34.7734 30.125 34.4377 30.125 34.0234V33.25H30.3125C30.9258 33.25 31.514 33.0064 31.9477 32.5727C32.3814 32.139 32.625 31.5508 32.625 30.9375C32.625 30.3242 32.3814 29.736 31.9477 29.3023C31.514 28.8686 30.9258 28.625 30.3125 28.625H28.4375C28.222 28.625 28.0153 28.5394 27.863 28.387C27.7106 28.2347 27.625 28.028 27.625 27.8125C27.625 27.597 27.7106 27.3904 27.863 27.238C28.0153 27.0856 28.222 27 28.4375 27H31.25C31.6642 27 32 26.6642 32 26.25C32 25.8358 31.6642 25.5 31.25 25.5H30.125V24.7266Z" fill="#161616"/>
<path fill-rule="evenodd" clip-rule="evenodd" d="M14.8735 6.12348C13.7518 7.2452 13.0356 8.69664 12.8193 10.25H6.25C5.00736 10.25 4 11.2574 4 12.5V32.5C4 33.7426 5.00736 34.75 6.25 34.75H22.1947C23.8306 36.932 26.4379 38.3438 29.375 38.3438C34.3283 38.3438 38.3438 34.3283 38.3438 29.375C38.3438 27.0458 37.4558 24.9239 36 23.3294V12.5C36 11.2574 34.9926 10.25 33.75 10.25H27.1807C26.9644 8.69664 26.2482 7.2452 25.1265 6.12348C23.7669 4.76384 21.9228 4.00001 20 4.00001C18.0772 4.00001 16.2331 4.76384 14.8735 6.12348ZM20.4062 29.375C20.4062 30.5689 20.6395 31.7082 21.0629 32.75H6.25C6.11193 32.75 6 32.6381 6 32.5V18.5H34V21.6892C32.6495 20.8748 31.067 20.4063 29.375 20.4063C24.4217 20.4063 20.4062 24.4217 20.4062 29.375ZM20 6.00001C18.6076 6.00001 17.2723 6.55313 16.2877 7.5377C15.5422 8.28319 15.0441 9.2298 14.8461 10.25H25.1539C24.9559 9.2298 24.4578 8.28319 23.7123 7.5377C22.7277 6.55313 21.3924 6.00001 20 6.00001ZM34 12.5C34 12.3619 33.8881 12.25 33.75 12.25H6.25C6.11193 12.25 6 12.3619 6 12.5V16.5H34V12.5ZM29.375 22.4063C25.5263 22.4063 22.4062 25.5263 22.4062 29.375C22.4062 33.2237 25.5263 36.3438 29.375 36.3438C33.2237 36.3438 36.3438 33.2237 36.3438 29.375C36.3438 25.5263 33.2237 22.4063 29.375 22.4063Z" fill="#161616"/>
</svg>

<svg width="40" height="40" viewBox="0 0 40 40" fill="none" xmlns="http://www.w3.org/2000/svg"><path d="M30.125 24.727a.75.75 0 0 0-1.5 0v.773h-.188a2.312 2.312 0 1 0 0 4.625h1.875a.812.812 0 1 1 0 1.625H27.5a.75.75 0 0 0 0 1.5h1.125v.773a.75.75 0 1 0 1.5 0v-.773h.188a2.312 2.312 0 1 0 0-4.625h-1.875a.812.812 0 1 1 0-1.625h2.812a.75.75 0 0 0 0-1.5h-1.125v-.773Z" fill="#161616"/><path fill-rule="evenodd" clip-rule="evenodd" d="M14.873 6.123a7.25 7.25 0 0 0-2.054 4.127H6.25A2.25 2.25 0 0 0 4 12.5v20a2.25 2.25 0 0 0 2.25 2.25h15.945A8.969 8.969 0 1 0 36 23.33V12.5a2.25 2.25 0 0 0-2.25-2.25h-6.57a7.25 7.25 0 0 0-12.306-4.127Zm5.533 23.252c0 1.194.234 2.333.657 3.375H6.25A.25.25 0 0 1 6 32.5v-14h28v3.19a8.969 8.969 0 0 0-13.594 7.686ZM20 6a5.25 5.25 0 0 0-5.154 4.25h10.308A5.25 5.25 0 0 0 20 6Zm14 6.5a.25.25 0 0 0-.25-.25H6.25a.25.25 0 0 0-.25.25v4h28v-4Zm-4.625 9.906a6.969 6.969 0 1 0 0 13.938 6.969 6.969 0 0 0 0-13.938Z" fill="#161616"/></svg>
